!!!COM: Palestrina, Giovanni Perluigi da
!!!OPR: Primi toni
!!!OTL: Sanctus
**kern	**kern	**kern	**kern
*Ibass	*Itenor	*Icalto	*Icant
!Bassus	!Tenor	!Altus	!Cantus
*clefF4	*clefGv2	*clefG2	*clefG2
*k[b-]	*k[b-]	*k[b-]	*k[b-]
*G:dor	*G:dor	*G:dor	*G:dor
*M4/2	*M4/2	*M4/2	*M4/2
=1	=1	=1	=1
0r	0r	1r	1dd
.	.	1d	[1ff
=2	=2	=2	=2
0r	0r	2f	2ff]
.	.	2g	4ee
.	.	.	4dd
.	.	2a	2cc#
.	.	[2b-	[2dd
=3	=3	=3	=3
0r	0r	4b-]	4dd]
.	.	4a	4cc
.	.	1g	2b-
.	.	.	1a
.	.	2f#	.
=4	=4	=4	=4
1G	1r	2.g	4b-
.	.	.	4a
.	.	.	4b-
.	.	8f	4cc
.	.	8e-	.
[1B-	1G	1d	1dd
=5	=5	=5	=5
2B-]	2B-	0r	1r
4A	2c	.	.
4G	.	.	.
2F#	2d	.	2r
[2G	[2e-	.	2g
=6	=6	=6	=6
4G]	4e-]	0r	2b-
4F	4d	.	.
2E-	1c	.	2cc
1D	.	.	1dd
.	2B	.	.
=7	=7	=7	=7
1C	1c	1g	1ee-
1r	[1G	[1b-	2dd
.	.	.	2g
=8	=8	=8	=8
1r	2G]	2b-]	2b-
.	2A	4a	2cc
.	.	4g	.
1D	2B-	2f	2dd
.	4A	[2a	[2ff
.	4G	.	.
=9	=9	=9	=9
2.F	1A	4a]	4ff]
.	.	4g	4ee
.	.	2f	1dd
4G	.	.	.
1A	1r	2e	.
.	.	2a	2cc#
=10	=10	=10	=10
2.B-	1d	2f	0dd
.	.	2b-	.
4c	.	.	.
2d	[1f	1a	.
2D	.	.	.
=11	=11	=11	=11
2F	2f]	1r	0r
2G	4e	.	.
.	4d	.	.
2A	2c#	2r	.
[2B-	[2d	2d	.
=12	=12	=12	=12
4B-]	4d]	2f	1r
4A	4c	.	.
2G	2B-	2g	.
2F#	2A	2a	2r
2G	2d	[2b-	2g
=13	=13	=13	=13
1E-	1G	4b-]	2b-
.	.	4a	.
.	.	1g	2cc
1D	1A	.	1dd
.	.	2f#	.
=14	=14	=14	=14
2G	0G	0g	2r
2.B-	.	.	2.dd
4B-	.	.	4dd
2B-	.	.	2dd
=15	=15	=15	=15
2A	0r	2r	2cc#
2B-	.	2.g	2dd
2c	.	.	2g
.	.	4g	.
2G	.	2g	2b-
=16	=16	=16	=16
1d	2r	2.f	1a
.	2.d	.	.
.	.	4g	.
1r	.	2a	2.ff
.	4d	.	.
.	2d	2b-	.
.	.	.	4dd
=17	=17	=17	=17
0r	2c#	2.a	2ee
.	2d	.	2ff
.	.	4f	.
.	2G	4g	4ee
.	.	4f	4dd
.	2B-	4e	[2dd
.	.	4d	.
=18	=18	=18	=18
1r	1A	2e	2dd]
.	.	2e	2cc#
2r	2.B-	1d	[1dd
[2G	.	.	.
.	4c	.	.
=19	=19	=19	=19
4G]	4d	2.b-	0dd]
4G	4e-	.	.
2G	1d	.	.
.	.	4g	.
2F#	.	2a	.
2G	2B-	2b-	.
=20	=20	=20	=20
2C	4c	4a	1r
.	4B-	4g	.
2E-	4A	1g	.
.	4G	.	.
1D	1A	.	2r
.	.	2f#	[2dd
=21	=21	=21	=21
2.B-	1G	1g	4dd]
.	.	.	4dd
.	.	.	2dd
4G	.	.	.
2A	1r	2r	2cc#
2B-	.	[2f	2dd
=22	=22	=22	=22
2c	1r	4f]	2.g
.	.	4e-	.
2c	.	2e-	.
.	.	.	4a
[1G	2r	1d	[1b-
.	[2d	.	.
=23	=23	=23	=23
1G]	4d]	2G	2b-]
.	4d	.	.
.	2d	2.g	4a
.	.	.	4g
1r	2c#	.	2.a
.	.	8f	.
.	.	8e	.
.	2d	2f	.
.	.	.	8g
.	.	.	8a
=24	=24	=24	=24
2r	2G	2.d	2b-
2G	2B-	.	2g
.	.	4e	.
2F	2A	[1f	[1a
2D	2d	.	.
=25	=25	=25	=25
2.F	2c	1f]	1a]
.	2A	.	.
4G	.	.	.
4A	2.c	1e	1r
4B-	.	.	.
[2c	.	.	.
.	4d	.	.
=26	=26	=26	=26
2c]	4e	0r	0r
.	4f	.	.
2B-	1g	.	.
1A	.	.	.
.	2f	.	.
=27	=27	=27	=27
2.G	4e	1r	0r
.	4d	.	.
.	1d	.	.
4F	.	.	.
1E	.	2r	.
.	2c#	2g	.
=28	=28	=28	=28
1D	1d	2f	2r
.	.	2d	2dd
2r	1r	2.f	2cc
2d	.	.	2a
.	.	4g	.
=29	=29	=29	=29
2c	0r	4a	2.cc
.	.	4b-	.
2A	.	1cc	.
.	.	.	4dd
1c	.	.	4ee
.	.	.	4ff
.	.	2b-	[2gg
=30	=30	=30	=30
1d	0r	1a	2gg]
.	.	.	2ff
1G	.	2.g	4ee
.	.	.	4dd
.	.	.	[2dd
.	.	4f	.
=31	=31	=31	=31
0r	2r	1e	2dd]
.	2g	.	2cc#
.	2f	4d	2dd
.	.	4e	.
.	2d	4f	2dd
.	.	4g	.
=32	=32	=32	=32
0r	1f	1a	2cc
.	.	.	2a
.	1g	2r	2.b-
.	.	2g	.
.	.	.	8a
.	.	.	8g
=33	=33	=33	=33
2r	2d	2f	2a
2G	2B-	2d	2b-
2F	2c	[1f	[1a
2D	[2d	.	.
=34	=34	=34	=34
1F	4d]	2f]	1a]
.	4c	.	.
.	1c	2e	.
1G	.	1d	[1g
.	2B	.	.
=35	=35	=35	=35
1C	1c	1e	1g]
[1F	[1c	[1f	[1a
=36	=36	=36	=36
1F]	1c]	1f]	1a]
1F	[1f	1a	1cc
=37	=37	=37	=37
1D	2f]	2a	1dd
.	2f	2b	.
1C	4g	2.cc	1ee
.	4f	.	.
.	4e	.	.
.	4d	4b-	.
=38	=38	=38	=38
1F	2.c	4a	1ff
.	.	4g	.
.	.	1a	.
.	8B-	.	.
.	8A	.	.
1G	2B-	.	1dd
.	2B-	[2g	.
=39	=39	=39	=39
0D	0A	2g]	0dd
.	.	4f#	.
.	.	4e	.
.	.	1f#	.
=40	=40	=40	=40
[0G	[0G	[0g	[0b
=41	=41	=41	=41
0G]	0G]	0g]	0b]
==	==	==	==
*-	*-	*-	*-
!!!CDT: 1525/^1526/-1594/2/2
!!!OCY: Italia
!!!AGN: Mass (Free)
!!!AST: renaissance, vocal
!!!ASW: Popular Song
!!!PWK: Masses, Book 4
!!!RNB: Cadence finals: D
!!!YOR: Le Opere Complete, v. 10, p. 19
!!!YOO: Rome, Italy: Fratelli Scalera
!!!END: 1992//
!!!EED: John Miller
!!!YEC: Copyright 2000, John Miller
!!!YEN: United States of America
!!!YEM: Rights to all derivative electronic formats reserved.
!!!YEM: Refer to licensing agreement for further details.
!!!YEM: This file must be accompanied by the licensing agreement.
!!!YEM: A copy of the licensing agreement may be found at http://www.music-cog.ohio-state.edu/HumdrumDatabases/Palestrina/license.txt
!!!EMD: converted to Humdrum by Bret Aarden
